build/system/TimeSolid.svg

<svg xmlns="http://www.w3.org/2000/svg" fill="none" viewBox="0 0 24 24" focusable="false"><path d="M0 0H24V24H0z"/><path fill="#74767B" fill-rule="evenodd" d="M12 3C7.02944 3 3 7.02944 3 12C3 16.9706 7.02944 21 12 21C16.9706 21 21 16.9706 21 12C21 7.02944 16.9706 3 12 3ZM12 7.50342C12.359 7.50342 12.65 7.79443 12.65 8.15342L12.65 12.0034L16 12.0034C16.359 12.0034 16.65 12.2944 16.65 12.6534C16.65 13.0124 16.359 13.3034 16 13.3034L12 13.3034C11.641 13.3034 11.35 13.0124 11.35 12.6534L11.35 8.15342C11.35 7.79443 11.641 7.50342 12 7.50342Z"/></svg>

<svg xmlns="http://www.w3.org/2000/svg" fill="none" viewBox="0 0 24 24" focusable="false"><path fill="#74767B" fill-rule="evenodd" d="M12 3c-4.98 0-9 4.02-9 9 0 4.97 4.02 9 9 9a9 9 0 0 0 9-9c0-4.98-4.03-9-9-9m0 4.5c.35 0 .64.29.64.65V12H16c.35 0 .64.29.64.65s-.29.65-.64.65h-4c-.36 0-.65-.29-.65-.65v-4.5c0-.36.29-.65.65-.65"/></svg>
